outputs/icons/action/trending_down_round.svg

<svg xmlns="http://www.w3.org/2000/svg" width="1200" height="1200" fill="none"><g clip-path="url(#a)"><path fill="#000" d="m842.5 857.51 72-72-244-244L506 706.01c-19.501 19.5-51.001 19.5-70.501 0l-300-300.499c-19.5-19.501-19.5-51.001 0-70.5 19.5-19.501 51-19.501 70.5 0l264.5 264.999L635 435.51c19.5-19.5 51-19.5 70.5 0l279.5 279 72-72c15.5-15.5 42.5-4.5 42.5 17.5v214.5c0 14-11 25-25 25H860c-22 .5-33-26.5-17.5-42"/></g><defs><clipPath id="a"><path fill="#fff" d="M0 0h1200v1200H0z"/></clipPath></defs></svg>

<svg width="1200" height="1200" viewBox="0 0 1200 1200" fill="none" xmlns="http://www.w3.org/2000/svg"><g clip-path="url(#clip0_223_1878)"><path d="M842.5 857.51L914.5 785.51L670.5 541.51L506 706.01C486.499 725.51 454.999 725.51 435.499 706.01L135.499 405.511C115.999 386.01 115.999 354.51 135.499 335.011C154.999 315.51 186.499 315.51 205.999 335.011L470.499 600.01L635 435.511C654.5 416.011 686 416.011 705.5 435.511L985 714.51L1057 642.51C1072.5 627.01 1099.5 638.01 1099.5 660.01V874.51C1099.5 888.51 1088.5 899.51 1074.5 899.51H860C838 900.01 827 873.01 842.5 857.51Z" fill="#1D1E23"/></g><defs><clipPath id="clip0_223_1878"><path width="24" fill="white" d="M0 0H1200V1200H0V0z"/></clipPath></defs></svg>
